assets/namaste-eafa40da.svg

<svg width="361" height="175" viewBox="0 0 361 175" fill="none" xmlns="http://www.w3.org/2000/svg">
<path d="M19.5302 124.333C13.2663 124.333 10.1344 118.417 10.1344 106.585C10.1344 100.437 12.1064 95.5074 16.0503 91.7955C20.1102 88.0836 25.33 86.2276 31.7099 86.2276H58.5053C59.8972 86.2276 60.5932 85.4157 60.5932 83.7917V68.1321C60.5932 66.6241 60.0132 65.8121 58.8533 65.6961H4.91452C2.13059 65.6961 0.738619 64.3041 0.738619 61.5202V51.6024C0.738619 48.9345 2.13059 47.6005 4.91452 47.6005H92.4345C95.2184 47.6005 96.6104 48.9345 96.6104 51.6024V61.5202C96.6104 64.3041 95.2184 65.6961 92.4345 65.6961H83.0387C81.6467 65.6961 80.9507 66.5081 80.9507 68.1321V151.998C80.9507 154.666 79.5588 156 76.7748 156H64.7691C61.9852 156 60.5932 154.666 60.5932 151.998V106.933C60.5932 105.309 59.8972 104.497 58.5053 104.497H39.7137C37.5098 104.497 35.8278 104.613 34.6678 104.845C31.7679 105.425 30.3179 107.455 30.3179 110.935L31.8839 120.331C31.8839 122.999 30.6079 124.333 28.056 124.333H19.5302ZM148.498 96.1454V68.1321C148.498 66.6241 147.918 65.8121 146.758 65.6961H123.442C122.05 65.6961 121.354 66.5081 121.354 68.1321V96.1454C121.354 97.7694 122.05 98.5813 123.442 98.5813H146.41C147.802 98.5813 148.498 97.7694 148.498 96.1454ZM146.41 116.329H123.442C122.05 116.329 121.354 117.141 121.354 118.765V128.509C121.354 131.177 119.963 132.511 117.179 132.511H105.173C102.389 132.511 100.997 131.177 100.997 128.509V68.1321C100.997 66.6241 100.417 65.8121 99.257 65.6961H90.3832C87.5993 65.6961 86.2073 64.3041 86.2073 61.5202V51.4285C86.2073 48.8765 87.5993 47.6005 90.3832 47.6005H180.339C183.123 47.6005 184.515 48.9345 184.515 51.6024V61.5202C184.515 64.3041 183.123 65.6961 180.339 65.6961H170.943C169.551 65.6961 168.855 66.5081 168.855 68.1321V151.998C168.855 154.666 167.463 156 164.679 156H152.674C149.89 156 148.498 154.666 148.498 151.998V118.765C148.498 117.141 147.802 116.329 146.41 116.329ZM178.231 47.6005H332.217C335.001 47.6005 336.393 48.9345 336.393 51.6024V61.5202C336.393 64.3041 335.001 65.6961 332.217 65.6961H322.821C321.429 65.6961 320.733 66.5081 320.733 68.1321V151.998C320.733 154.666 319.341 156 316.558 156H304.552C301.768 156 300.376 154.666 300.376 151.998V101.017C300.376 99.3933 299.68 98.5813 298.288 98.5813H282.802C274.335 98.5813 270.101 102.641 270.101 110.761V126.595C270.101 131.119 270.855 134.251 272.363 135.99C273.987 137.614 277.176 138.484 281.932 138.6H283.498C286.282 138.6 287.674 139.992 287.674 142.776V151.824C287.674 154.608 286.282 156 283.498 156H276.712C267.433 156 260.589 153.506 256.181 148.518C251.889 143.53 249.743 135.99 249.743 125.899V115.459H207.984L229.386 149.214C230.082 150.374 230.43 151.418 230.43 152.346C230.43 154.782 229.212 156 226.776 156H213.03C211.522 156 210.304 155.246 209.376 153.738L189.54 121.549L184.495 114.937V102.409C184.495 100.901 184.959 99.6833 185.887 98.7553C186.931 97.8274 188.207 97.3634 189.714 97.3634H202.59C206.65 97.3634 208.68 95.2754 208.68 91.0995V68.1321C208.68 66.5081 207.984 65.6961 206.592 65.6961H178.231C175.447 65.6961 174.055 64.2461 174.055 61.3462V51.6024C174.055 48.9345 175.447 47.6005 178.231 47.6005ZM300.376 77.5278V68.1321C300.376 66.6241 299.796 65.8121 298.636 65.6961H231.126C229.734 65.6961 229.038 66.5081 229.038 68.1321V85.3577C229.038 91.0415 228.168 94.8114 226.428 96.6674V97.3634H251.657C255.601 85.7636 264.997 79.9638 279.844 79.9638H298.288C299.68 79.9638 300.376 79.1518 300.376 77.5278ZM319.872 47.6005H320.742V55.7783H308.562C300.906 48.5865 294.99 42.6707 290.814 38.0308C286.638 33.2749 282.346 27.533 277.939 20.8052L268.891 7.05949C268.195 6.01551 267.847 4.97154 267.847 3.92757C267.847 1.72362 268.949 0.62164 271.153 0.62164H285.246C287.682 0.62164 289.538 1.66562 290.814 3.75357C307.518 31.5929 316.044 45.7446 316.392 46.2086C317.204 47.1366 318.364 47.6005 319.872 47.6005ZM360.065 130.945V144.516C360.065 147.648 358.731 151.244 356.063 155.304L344.057 172.878C343.245 174.038 342.143 174.618 340.751 174.618C338.779 174.618 337.793 173.458 337.793 171.138V131.119C337.793 128.799 338.953 127.639 341.273 127.639H356.759C358.963 127.639 360.065 128.741 360.065 130.945Z" fill="#FF00B2"/>
</svg>

<svg xmlns="http://www.w3.org/2000/svg" width="361" height="175" fill="none" viewBox="0 0 361 175"><path fill="#FF00B2" d="M19.53 124.333c-6.264 0-9.396-5.916-9.396-17.748 0-6.148 1.972-11.078 5.916-14.79 4.06-3.711 9.28-5.567 15.66-5.567h26.795c1.392 0 2.088-.812 2.088-2.436v-15.66c0-1.508-.58-2.32-1.74-2.436H4.915c-2.784 0-4.176-1.392-4.176-4.176v-9.918c0-2.667 1.392-4.002 4.176-4.002h87.52c2.783 0 4.175 1.334 4.175 4.002v9.918c0 2.784-1.392 4.176-4.175 4.176h-9.396c-1.392 0-2.088.812-2.088 2.436v83.866c0 2.668-1.392 4.002-4.176 4.002H64.769c-2.784 0-4.176-1.334-4.176-4.002v-45.065c0-1.624-.696-2.436-2.088-2.436H39.714c-2.204 0-3.886.116-5.046.348-2.9.58-4.35 2.61-4.35 6.09l1.566 9.396c0 2.668-1.276 4.002-3.828 4.002H19.53Zm128.968-28.188V68.132c0-1.508-.58-2.32-1.74-2.436h-23.316c-1.392 0-2.088.812-2.088 2.436v28.013c0 1.624.696 2.436 2.088 2.436h22.968c1.392 0 2.088-.812 2.088-2.436Zm-2.088 20.184h-22.968c-1.392 0-2.088.812-2.088 2.436v9.744c0 2.668-1.391 4.002-4.175 4.002h-12.006c-2.784 0-4.176-1.334-4.176-4.002V68.132c0-1.508-.58-2.32-1.74-2.436h-8.874c-2.784 0-4.176-1.392-4.176-4.176V51.428c0-2.551 1.392-3.828 4.176-3.828h89.956c2.784 0 4.176 1.334 4.176 4.002v9.918c0 2.784-1.392 4.176-4.176 4.176h-9.396c-1.392 0-2.088.812-2.088 2.436v83.866c0 2.668-1.392 4.002-4.176 4.002h-12.005c-2.784 0-4.176-1.334-4.176-4.002v-33.233c0-1.624-.696-2.436-2.088-2.436Zm31.821-68.728h153.986c2.784 0 4.176 1.334 4.176 4.001v9.918c0 2.784-1.392 4.176-4.176 4.176h-9.396c-1.392 0-2.088.812-2.088 2.436v83.866c0 2.668-1.392 4.002-4.175 4.002h-12.006c-2.784 0-4.176-1.334-4.176-4.002v-50.981c0-1.624-.696-2.436-2.088-2.436h-15.486c-8.467 0-12.701 4.06-12.701 12.18v15.834c0 4.524.754 7.656 2.262 9.395 1.624 1.624 4.813 2.494 9.569 2.61h1.566c2.784 0 4.176 1.392 4.176 4.176v9.048c0 2.784-1.392 4.176-4.176 4.176h-6.786c-9.279 0-16.123-2.494-20.531-7.482-4.292-4.988-6.438-12.528-6.438-22.619v-10.44h-41.759l21.402 33.755c.696 1.16 1.044 2.204 1.044 3.132 0 2.436-1.218 3.654-3.654 3.654H213.03c-1.508 0-2.726-.754-3.654-2.262l-19.836-32.189-5.045-6.612v-12.528c0-1.508.464-2.726 1.392-3.654 1.044-.928 2.32-1.392 3.827-1.392h12.876c4.06 0 6.09-2.088 6.09-6.263V68.132c0-1.624-.696-2.436-2.088-2.436h-28.361c-2.784 0-4.176-1.45-4.176-4.35v-9.744c0-2.667 1.392-4.002 4.176-4.002Zm122.145 29.927v-9.396c0-1.508-.58-2.32-1.74-2.436h-67.51c-1.392 0-2.088.812-2.088 2.436v17.226c0 5.683-.87 9.453-2.61 11.31v.695h25.229c3.944-11.6 13.34-17.4 28.187-17.4h18.444c1.392 0 2.088-.811 2.088-2.435ZM319.872 47.6h.87v8.178h-12.18c-7.656-7.191-13.572-13.107-17.748-17.747-4.176-4.756-8.468-10.498-12.875-17.226L268.891 7.06c-.696-1.043-1.044-2.087-1.044-3.131 0-2.204 1.102-3.306 3.306-3.306h14.093c2.436 0 4.292 1.044 5.568 3.132 16.704 27.839 25.23 41.99 25.578 42.455.812.928 1.972 1.391 3.48 1.391Zm40.193 83.345v13.571c0 3.132-1.334 6.728-4.002 10.788l-12.006 17.574c-.812 1.16-1.914 1.74-3.306 1.74-1.972 0-2.958-1.16-2.958-3.48v-40.019c0-2.32 1.16-3.48 3.48-3.48h15.486c2.204 0 3.306 1.102 3.306 3.306Z"/></svg>
